X: 21503
M: 2/4
L: 1/8
K: D
[|\
dfaz | dgbz | dfaa | egfe |\
dfaz | dgbz | dgfa | efdz |]


